X:31
T:Sport
C:Peadar O'Riada
M:6/8
L:1/8
R:jig
K: D
|"D"AdF ~A3 |"Emin"GBE ~G3|"D"AdF  ~A3|"G"GBE "A"cde|
|"D"AdF ~A3 |"Emin"GBE ~G3|"A"cdc  A2G|1EAA "D"D2d:|2EAA "D"D2d||
"A"~c3"G"ded||"A"cecA2G|"G"GBE "A"cde|"D"fed ged|"A"cec A2 g|
"D"~f3"G"~f3||"A"age d2e|"D"fdF "G"A2 F|1"A"GEA "D"D2d:|2"A"GEA "D"D3|
"Emin7ad11"AGG AEE|"Emin7add11"AGE EDD|"Emin7add11"AGE "A"cde|
"D"dcA ~G3| "Emin7ad11"AGG AEE|"Emin7add11"AGE EDD|
"A"cdc "G"A2G|1"A"EAA"D"D3:|2"A"EAA "D"D2 (3DEF||
